!!!OTL: Lasst uns fahrn nach Engelland zu!
!!!ARE: Europa, Mitteleuropa, Deutschland
!!!SCT: A0322
!!!YEM: Copyright 1995, estate of Helmut Schaffrath.
**kern
*ICvox
*Ivox
*M4/4
*k[b-e-]
*g:
{4dd
4dd
4dd
=1
4dd
4dd
4ee-
4ee-
=2
2cc}
{4dd
4ee-
=3
4ffn
4gg
2ee-
=4
2dd
4r}
{4dd
=5
4gg
4gg
4ee-
4ee-
=6
4ffn
4ffn
2dd
=7
4cc
4a
2g}
=8
{4b-
4cc
2dd
=9
4a
4b-
2cc}
=10
{4g
4a
4b-
4cc
=11
4.a
8a
2g}
=12
{4b-
4cc
2dd
=13
4a
4b-
2cc}
=14
{4g
4a
4b-
4cc
=15
4.a
8a
2g}
=16
{4g
4a
4b-
4cc
=17
4.a
8a
2g
=18
4r}
==
!!!AGN: Romanze, Ballade, Lied, Trinklied
!! Ammerbach Tablaturbuch 1571
!!!ONB: ESAC (Essen Associative Code) Database: ALTDEU
!!!AMT: simple quadruple
!!!AIN: vox
!!!EED: Helmut Schaffrath
!!!EEV: 1.0
*-
